X: 133025
T: TEMPLE HOUSE
Q: "Scotch Jig."
R: Jig.
%R: jig
B: James Kerr "Merry Melodies" v.1 p.33 s.0 #25
Z: 2016 John Chambers <jc:trillian.mit.edu>
M: 6/8
L: 1/8
K: Em
|:\
vEFE uG2uE | vB2vE uG2uE | DED F2D | A2D F2D |\
EFE G2E | B2E G2E | BcB cBA | BGE E2 :|\
uf |\
gbg ege | gbg ege | faf dfd | faf def |
gbg ege | gbg ege | gbg faf | bge ue2uf |\
gbg ege | gbg ege | faf dfd | faf def |\
gfe agf | bag fed | BcB cBA | BGE E2 |]

%%sep 1 1 500
%%sep 1 1 500

